!!!COM: Beethoven
!!!OTL: Acht Variationen uber das Trio "Tandeln und Scherzen" aus der Oper: Soliman oder die drei Sultaninnen von Sussmayer
!!!Variation: Theme a
**function	**harm	**kern	**kern
*	*	*clefF4	*clefG2
*	*	*k[b-]	*k[b-]
*M3/8	*M3/8	*M3/8	*M3/8
*F:	*F:	*F:	*F:
=1	=1	=1	=1
4.T	4.I	8F 8A 8c	8fL
.	.	8r	8a
.	.	8F 8A 8c	8fJ
=2	=2	=2	=2
.	.	.	qdd
4.T	4.V	8C 8E 8G 8c	16ccLL
.	.	.	16b
.	.	8r	16cc
.	.	.	16ddJ
.	.	8r	8ccJ
=3	=3	=3	=3
4.T	4.V7	8C 8E 8G 8c	8b-L
.	.	8r	8g
.	.	8C 8E 8G 8c	8ccJ
=4	=4	=4	=4
.	.	.	qb-
4.T	4.I	8F 8A 8c	8aL
.	.	8r	16gL
.	.	.	16aJ
.	.	8r	8fJ
=5	=5	=5	=5
4.T	4.IV/V[I]	8F 8A 8c	8fL
.	.	8r	8a
.	.	8F 8A 8c	8bJ
=6	=6	=6	=6
.	.	.	qdd
4T	4Ib/V	8E 8G 8c	16ccLL
.	.	.	16b
.	.	8r	16cc
.	.	.	16ddJ
8T	8I/V	8C	8eeJ
=7	=7	=7	=7
8P	8iib/V	8FL	8fL 8a 8dd
8P	8Cc/V	8G	8e 8g 8cc
8P	8V7/V	8GGJ	8dJ 8f 8g 8b
=8	=8	=8	=8
4.D	4.V	4.C;	4.e; 4.g; 4.cc;
=9	=9	=9	=9
4.T	4.I	8r	8ccL
.	.	8AL 8f	8cc
.	.	8FJ 8f	8ffJ
=10	=10	=10	=10
4T	4IV	4B- 4f	16ddLL
.	.	.	16ee
.	.	.	16ff
.	.	.	16ddJ
8T	8Ib	8A 8f	8ccJ
=11	=11	=11	=11
4.T	4.I	8r	8ccL
.	.	8AL 8f	8cc
.	.	8FJ 8f	8ffJ
=12	=12	=12	=12
4T	4IV	4B- 4f	16ddLL
.	.	.	16ee
.	.	.	16ff
.	.	.	16ddJ
8T	8Ib	8A 8f	8ccJ
=13	=13	=13	=13
4.T	4.V7	8B-L	8gg'L
.	.	8G	8ee'J
.	.	8EJ	8r
=14	=14	=14	=14
4.T	4.V7	8C	8g'L 8b-'
.	.	8r	8e'J 8g'
.	.	8r;	8r;
=15	=15	=15	=15
4.T	4.Ib	8A	8ffL
.	.	8r	8f
.	.	8r	8aJ
=16	=16	=16	=16
.	.	.	qa
4.P	4.iib	8B-	8fL 8g
.	.	8r	8fJ 8g
.	.	8r	8r
=17	=17	=17	=17
4D	4Cc	8cL	8aL 8cc
.	.	8c	16fL 16a
.	.	.	16a 16cc
8D	8V7	8CJ	16g 16b-
.	.	.	16eJJ 16g
=18	=18	=18	=18
4.T	4.I	8F	8f
.	.	8r	8r
.	.	8r	8r
=19	=19	=19	=19
4.D	4.V7	8cL	8b-'L 8gg'
.	.	8c	8g'J 8ee'
.	.	8cJ	8r
=20	=20	=20	=20
4.D	4.V7	8C	8g'L 8b-'
.	.	8r	8e'J 8g'
.	.	8r;	8r;
=21	=21	=21	=21
4.T	4.Ib	8A	8ffL
.	.	8r	8f
.	.	8r	8aJ
=22	=22	=22	=22
4.P	4.iib	8B-	8fL 8g
.	.	8r	8fJ 8g
.	.	8r	8r
=23	=23	=23	=23
4D	4Cc	8c	8aL 8cc
.	.	8r	16fL 16a
.	.	.	16a 16cc
8D	8V7	8C	16g 16b-
.	.	.	16eJJ 16g
=24	=24	=24	=24
4.T	4.I	8FL	8f
.	.	8C	8r
.	.	8FFJ	8r
=25	=25	=25	=25
4.T	4.I	4.r	(16fLL
.	.	.	16a
.	.	.	16cc
.	.	.	16ff
.	.	.	16aa
.	.	.	16ggJJ)
=26	=26	=26	=26
4.T	4.V	(16CLL	(8ff
.	.	16E	.
.	.	16G	[4ee
.	.	16c	.
.	.	16e	.
.	.	16gJJ)	.
=27	=27	=27	=27
4.T	4.V7	(8b-L	16eeLL])
.	.	.	(16ff
.	.	8cJ)	16ff#
.	.	.	16gg
.	.	8r	16ee
.	.	.	16ccJJ)
=28	=28	=28	=28
4.T	4.I	(16FFLL	(8b-
.	.	16AA	.
.	.	16C	4a)
.	.	16F	.
.	.	16A	.
.	.	16cJJ)	.
=29	=29	=29	=29
4.T	4.IV/V[I]	(8AL	(16fLL
.	.	.	16a
.	.	8FJ)	16cc
.	.	.	16ff
.	.	8r	16aa
.	.	.	16bbJJ)
=30	=30	=30	=30
4.T	4.Ib/V	(16ELL	(8ddd
.	.	16G	.
.	.	16c	4ccc)
.	.	16e	.
.	.	16g	.
.	.	16ccJJ)	.
=31	=31	=31	=31
4P	4Cc/V	8r	(16eeLL 16gg
.	.	.	16dd# 16ff#
.	.	8r	16ee 16gg
.	.	.	16cc) 16ee
8P	8V7/V	8GG	16dd' 16ff'
.	.	.	16b'JJ
=32	=32	=32	=32
*	*	*^	*
4.D	4.V	16r	4.C	(4f 4dd
.	.	(16GLL	.	.
.	.	16A	.	.
.	.	16BJ	.	.
.	.	8cJ)	.	8e) 8cc
*	*	*v	*v	*
=33	=33	=33	=33
4.T	4.I	4.r	(16ccLL
.	.	.	16f
.	.	.	16a
.	.	.	16cc
.	.	.	16ff
.	.	.	16ccJJ)
=34	=34	=34	=34
*	*	*clefG2	*
4T	4IV	(16B-LL	(4dd
.	.	16d	.
.	.	16f	.
.	.	16b-	.
8T	8I	16a	8cc)
.	.	16fJJ)	.
=35	=35	=35	=35
*	*	*clefF4	*
4.T	4.I	(16cLL	4.r
.	.	16F	.
.	.	16A	.
.	.	16c	.
.	.	16f	.
.	.	16cJJ)	.
=36	=36	=36	=36
4T	4IVb	(4d	(16b-LL
.	.	.	16dd
.	.	.	16ff
.	.	.	16bb-
8T	8Ic	8c)	16aa
.	.	.	16ffJJ)
=37	=37	=37	=37
4.T	4.V7	8c'L	(16eeLL
.	.	.	16gg)
.	.	8C'J	(16b-
.	.	.	16ee)
.	.	8r	(16g
.	.	.	16b-JJ)
=38	=38	=38	=38
4.T	4.V7	8C'	(16eLL
.	.	.	16gJJ)
.	.	4CC; 4C;	4E; 4G; 4B-;
=39	=39	=39	=39
4.T	4.Ib	(16AALL	(16ffLL
.	.	16C	16cc
.	.	16F)	16a)
.	.	16F'	16a'
.	.	16F'	16a'
.	.	16F'JJ	16a'JJ
=40	=40	=40	=40
4.P	4.iib	(16BB-LL	(16ddLL
.	.	16D	16b-
.	.	16G)	16g)
.	.	16G'	16g'
.	.	16G'	16g'
.	.	16G'JJ	16g'JJ
=41	=41	=41	=41
8.D	8.Cc	(16CLL	(16ccLL
.	.	16F	16a
.	.	16A	16f)
8.D	8.V7	16C	(16b-
.	.	16G	16g
.	.	16B-JJ)	16eJJ)
=42	=42	=42	=42
4.T	4.I	8F 8A	(16fLL
.	.	.	16a
.	.	8r	16cc
.	.	.	16ff
.	.	8r	16aa
.	.	.	16ffJJ)
=43	=43	=43	=43
4.D	4.V7	8c'L	(16eeLL
.	.	.	16gg)
.	.	8C'J	(16b-
.	.	.	16ee)
.	.	8r	(16g
.	.	.	16b-JJ)
=44	=44	=44	=44
4.D	4.V7	8C'	(16eLL
.	.	.	16gJJ)
.	.	4CC; 4C;	4E; 4G; 4B-;
=45	=45	=45	=45
4.T	4.Ib	(16ALL	(16fffLL
.	.	16c	16ccc
.	.	16fJJ)	16aaJJ)
.	.	16AA'LL	16A'LL 16c' 16f'
.	.	16AA'	16A' 16c' 16f'
.	.	16AA'JJ	16A'JJ 16c' 16f'
=46	=46	=46	=46
4.P	4.iib	(16B-LL	(16dddLL
.	.	16d	16bb-
.	.	16gJJ)	16ggJJ)
.	.	16BB-'LL	16B-'LL 16d' 16g'
.	.	16BB-'	16B-' 16d' 16g'
.	.	16BB-'JJ	16B-'JJ 16d' 16g'
=47	=47	=47	=47
*	*	*clefG2	*
8.D	8.Cc	(16cLL	(16cccLL
.	.	16f	16aa
.	.	16a	16ff)
8.D	8.V7	16c	(16bb-
.	.	16g	16gg
.	.	16b-JJ)	16eeJJ)
=48	=48	=48	=48
4.T	4.I	8f 8a	(16ffLL
.	.	.	16a
.	.	16r	16fJJ)
*	*	*clefF4	*
.	.	(16FLK	16r
.	.	8FFJ)	8r
=49	=49	=49	=49
4.T	4.I	8FF 8F	24r
.	.	.	24F'LL
.	.	.	24A'J
.	.	8r	24c'L
.	.	.	(24f
.	.	.	24eJ)
.	.	8r	24f'L
.	.	.	24a'
.	.	.	24f'JJ
=50	=50	=50	=50
4.T	4.Vb	8EE 8E	24r
.	.	.	24c'LL
.	.	.	24e'J
.	.	8r	24g'L
.	.	.	(24cc
.	.	.	24bJ)
.	.	8r	24dd'L
.	.	.	24b'
.	.	.	24cc'JJ
=51	=51	=51	=51
4.T	4.V7	8CC 8C	24r
.	.	.	24e'LL
.	.	.	24g'J
.	.	8r	24b-'L
.	.	.	(24ee
.	.	.	24ffJ)
.	.	8r	24gg'L
.	.	.	24ee'
.	.	.	24b-'JJ
=52	=52	=52	=52
4.T	4.I	8FF 8F	24r
.	.	.	(24aLL
.	.	.	24aaJ)
.	.	8r	24ff'L
.	.	.	24cc'
.	.	.	24a'J
.	.	8r	24f'L
.	.	.	24c'
.	.	.	24A'JJ
=53	=53	=53	=53
4T	4IV/V[I]	8FF 8F	24r
.	.	.	24f'LL
.	.	.	24a'J
.	.	8r	24cc'L
.	.	.	24ff'
.	.	.	24aa'J
*	*	*clefG2	*
8T	8V7d/V	8f' 8g'	24dd'L
.	.	.	(24ccc
.	.	.	24bbJJ)
=54	=54	=54	=54
4T	4Ib/V	8e'L 8g'	24ee'LL
.	.	.	(24ddd
.	.	.	24cccJ)
.	.	8d' 8f'	24ff'L
.	.	.	(24eee
.	.	.	24dddJ)
8T	8I/V	8c'J 8e'	24gg'L
.	.	.	(24fff
.	.	.	24eeeJJ)
*	*	*clefF4	*
=55	=55	=55	=55
8P	8iib/V	8F'L	24r
.	.	.	(24ggLL 24eee
.	.	.	24ffJJ) 24ddd
8P	8Cc/V	8G'	24r
.	.	.	(24ffLL 24ddd
.	.	.	24eeJJ) 24ccc
8P	8V7/V	8GG'J	24r
.	.	.	(24eeLL 24ccc
.	.	.	24ddJJ) 24bb
=56	=56	=56	=56
4.D	4.V	8C	24r
.	.	.	(24cccLL
.	.	.	24bbJ
.	.	8r	24cccL
.	.	.	24gg
.	.	.	24ffJ
.	.	8r	24eeL
.	.	.	24dd
.	.	.	24ccJJ)
=57	=57	=57	=57
4.T	4.I	8r	(24bLL
.	.	.	24dd
.	.	.	24ccJ
.	.	8AL 8f	24ffL
.	.	.	24cc
.	.	.	24ffJ
.	.	8FJ 8f	24cc#L
.	.	.	24ff
.	.	.	24cc#JJ)
=58	=58	=58	=58
4T	4IV	4B- 4f	(24ddLL
.	.	.	24ff
.	.	.	24bb-J
.	.	.	24dddL
.	.	.	24fff
.	.	.	24dddJ
8T	8Ib	8A 8f	24cccL
.	.	.	24fff
.	.	.	24cccJJ)
=59	=59	=59	=59
4.T	4.I	8r	(24bLL
.	.	.	24dd
.	.	.	24ccJ
.	.	8AL 8f	24ffL
.	.	.	24cc
.	.	.	24ffJ
.	.	8FJ 8f	24cc#L
.	.	.	24ff
.	.	.	24cc#JJ)
=60	=60	=60	=60
4T	4IV	4B- 4f	(24ddLL
.	.	.	24ff
.	.	.	24bb-J
.	.	.	24dddL
.	.	.	24fff
.	.	.	24dddJ
8T	8Ib	8A 8f	24cccL
.	.	.	24fff
.	.	.	24cccJJ)
=61	=61	=61	=61
4.T	4.V7	8c'L 8g'	24bb-'LL
.	.	.	(24gg
.	.	.	24ff#J
.	.	8c'J 8e'	24gg'L)
.	.	.	(24ee
.	.	.	24dd#J
.	.	8r	24ee'L)
.	.	.	(24b-
.	.	.	24aJJ)
=62	=62	=62	=62
4.T	4.V7	8C 8G	24b-'LL
.	.	.	(24g
.	.	.	24f#JJ)
.	.	4C; 4E;	4g;
=63	=63	=63	=63
4.T	4.Ib	8AA 8C 8F	24r
.	.	.	(24ffLL
.	.	.	24eeJ)
.	.	8r	24ff'L
.	.	.	24cc'
.	.	.	24b-'J
.	.	8r	24a'L
.	.	.	24g'
.	.	.	24f'JJ
=64	=64	=64	=64
4.P	4.iib	8BB- 8D 8G	24r
.	.	.	(24ddLL
.	.	.	24cc#J)
.	.	8r	24ee'L
.	.	.	24dd'
.	.	.	24cc'J
.	.	8r	24b-'L
.	.	.	24a'
.	.	.	24g'JJ
=65	=65	=65	=65
4D	4Cc	8r	(24ccLL
.	.	.	24b
.	.	.	24ddJ
.	.	8CL 8F 8A	24ccL
.	.	.	24a
.	.	.	24fJ
8D	8V7	8CJ 8G 8B-	24b-L
.	.	.	24g
.	.	.	24eJJ)
=66	=66	=66	=66
4.T	4.I	8F 8A	24f'LL
.	.	.	24a'
.	.	.	24b-'J
.	.	8r	24cc'L
.	.	.	24dd'
.	.	.	24ee'J
.	.	8r	24ff'L
.	.	.	24gg'
.	.	.	24aa'JJ
=67	=67	=67	=67
4.D	4.V7	8c'L 8g' 8b-'	24bb-'LL
.	.	.	(24gg
.	.	.	24ff#J)
.	.	8c'J 8e' 8g'	24gg'L
.	.	.	(24ee
.	.	.	24dd#J)
.	.	8r	24ee'L
.	.	.	(24b-
.	.	.	24aJJ)
=68	=68	=68	=68
4.D	4.V7	8C 8G 8B-	24b-'LL
.	.	.	(24g
.	.	.	24f#JJ)
.	.	4C; 4E; 4G;	4g;
=69	=69	=69	=69
4.T	4.Ib	8AA 8C 8F	24r
.	.	.	(24fffLL
.	.	.	24eeeJ
.	.	8r	24fff'L)
.	.	.	24ccc'
.	.	.	24bb-'J
.	.	8r	24aa'L
.	.	.	24gg'
.	.	.	24ff'JJ
=70	=70	=70	=70
4.P	4.iib	8BB- 8D 8G	24r
.	.	.	(24dddLL
.	.	.	24ccc#J
.	.	8r	24eee'L)
.	.	.	24ddd'
.	.	.	24ccc'J
.	.	8r	24bb-'L
.	.	.	24aa'
.	.	.	24gg'JJ
=71	=71	=71	=71
4D	4Cc	8r	24cccLL
.	.	.	24aa
.	.	.	24ffJ
.	.	8CL 8F 8A	24ccL
.	.	.	24a
.	.	.	24fJ
8D	8V7	8CJ 8G 8B-	24b-L
.	.	.	24g
.	.	.	24eJJ
=72	=72	=72	=72
4.T	4.I	8r	24fLL
.	.	.	24c
.	.	.	24AJJ
.	.	24FLL	8r
.	.	24C	.
.	.	24AAJJ	.
.	.	8FF	8r
=73	=73	=73	=73
4.T	4.I	16FFLL	16r
.	.	32r	16f 16a 16cc
.	.	(32GGJ	.
.	.	16AA)	16r
.	.	32r	16f 16a 16cc
.	.	(32GGJ	.
.	.	16AA)	16r
.	.	32r	16f 16a 16cc
.	.	(32FFJJJ	.
=74	=74	=74	=74
4.T	4.V	16CLL)	16r
.	.	32r	16e 16g 16cc
.	.	(32CJ	.
.	.	16BB)	16r
.	.	32r	16e 16g 16cc
.	.	(32CJ	.
.	.	16D)	16r
.	.	32r	16e 16g 16cc
.	.	(32CJJJ	.
=75	=75	=75	=75
4.T	4.V7d	16BB-LL)	16r
.	.	32r	16e 16g 16cc
.	.	(32AAJ	.
.	.	16GG)	16r
.	.	32r	16e 16g 16cc
.	.	(32CJ	.
.	.	16BB)	16r
.	.	32r	16e 16g 16cc
.	.	(32CJJJ	.
=76	=76	=76	=76
4T	4Ib	16BB-LL)	16r
.	.	32r	16f 16a 16cc
.	.	(32AAJ	.
.	.	16GG)	16r
.	.	32r	16f 16a 16cc
.	.	(32FFJ	.
8T	8I	16EE)	16r
.	.	32r	16f 16a 16cc
.	.	(32FFJJJ	.
=77	=77	=77	=77
4.T	4.IV/V[I]	16FFFLL)	16r
.	.	32r	16a 16cc 16ff
.	.	(32FFJ	.
.	.	16AA)	16r
.	.	32r	16a 16cc 16ff
.	.	(32FFJ	.
.	.	16AA)	16r
.	.	32r	16a 16cc 16ff
.	.	(32BBJJJ	.
=78	=78	=78	=78
4.T	4.I/V	16CLL)	16r
.	.	32r	16g 16cc 16ee
.	.	(32BBJ	.
.	.	16C)	16r
.	.	32r	16g 16cc 16ee
.	.	(32DJ	.
.	.	16E)	16r
.	.	32r	16g 16cc 16ee
.	.	(32CJJJ	.
=79	=79	=79	=79
8P	8iib/V	16FLL)	16r
.	.	32r	16f 16a 16dd
.	.	(32DJ	.
8P	8Cc/V	16G)	16r
.	.	32r	16e 16g 16cc
.	.	(32F#J	.
8P	8V7/V	16G)	16r
.	.	32r	16d 16f 16g 16b
.	.	(32GGJJJ	.
=80	=80	=80	=80
4.D	4.V	16CLL)	16r
.	.	32r	16e 16g 16cc
.	.	(32CJ	.
.	.	16BB)	16r
.	.	32r	16e 16g 16cc
.	.	(32CJ	.
.	.	16BB-)	16r
.	.	32r	16e 16g 16cc
.	.	(32CJJJ	.
=81	=81	=81	=81
4.T	4.I	16AALL)	16r
.	.	32r	16f 16cc
.	.	(32GGJ	.
.	.	16FF)	16r
.	.	32r	16f 16cc 16ff
.	.	(32GGJ	.
.	.	16AA)	16r
.	.	32r	16f 16cc 16ff
.	.	(32FFJJJ	.
=82	=82	=82	=82
8T	8IV	16BB-LL)	16r
.	.	32r	16f 16dd 16ff
.	.	(32FFJ	.
4T	4Ib	16AA)	16r
.	.	32r	16f 16cc 16ff
.	.	(32FFJ	.
.	.	16AA)	16r
.	.	32r	16f 16cc 16ff
.	.	(32FFJJJ	.
=83	=83	=83	=83
4.T	4.I	16AALL)	16r
.	.	32r	16f 16cc 16ff
.	.	(32GGJ	.
.	.	16FF)	16r
.	.	32r	16f 16cc 16ff
.	.	(32GGJ	.
.	.	16AA)	16r
.	.	32r	16f 16cc 16ff
.	.	(32FFJJJ	.
=84	=84	=84	=84
8T	8IV	16BB-LL)	16r
.	.	32r	16f 16dd 16ff
.	.	(32FFJ	.
4T	4Ib	16AA)	16r
.	.	32r	16f 16cc 16ff
.	.	(32FFJ	.
.	.	16AA)	16r
.	.	32r	16f 16cc 16ff
.	.	(32FFJJJ	.
=85	=85	=85	=85
4.T	4.V7	16CLL)	16r
.	.	32r	16b- 16cc 16gg
.	.	(32CCJ	.
.	.	16EE)	16r
.	.	32r	16g 16cc 16ee
.	.	(32GGJ	.
.	.	16C)	16r
.	.	32r	16e 16g 16cc
.	.	(32EJJJ	.
=86	=86	=86	=86
4.T	4.V7	16GLL)	16r
.	.	32r	16c 16e 16b-
.	.	(32GJJJ	.
.	.	4B-;)	16r
.	.	.	8.c; 8.e; 8.g;
=87	=87	=87	=87
4.T	4.Ib	16AALL	16r
.	.	32r	16f 16ff
.	.	(32CJ	.
.	.	16F)	16r
.	.	32r	16f
.	.	(32AAJ	.
.	.	16C)	16r
.	.	32r	16f
.	.	(32FJJJ	.
=88	=88	=88	=88
8.P	8.ii7b	16BB-LL)	16r
.	.	32r	16f 16g
.	.	(32DJ	.
.	.	16G)	16r
8.P	8.V7b/V	32r	16f 16g
.	.	(32BBJ	.
.	.	16D)	16r
.	.	32r	16f 16g
.	.	(32GJJJ	.
=89	=89	=89	=89
8D	8Cc	16CLL)	16r
.	.	32r	16f 16a
.	.	(32cJ	.
4D	4V7	16C)	16r
.	.	32r	16e 16b-
.	.	(32cJ	.
.	.	16C)	16r
.	.	32r	16e 16g
.	.	(32cJJJ	.
=90	=90	=90	=90
4.T	4.I	8F)	16f'LL
.	.	.	(16cc
.	.	8r	16b
.	.	.	16cc
.	.	8r	16dd
.	.	.	16ccJJ)
=91	=91	=91	=91
4.D	4.V7	16CLL	16b-LL
.	.	32r	16b-JJ 16cc 16gg
.	.	(32CCJ	.
.	.	16EE)	16r
.	.	32r	16g 16cc 16ee
.	.	(32GGJ	.
.	.	16C)	16r
.	.	32r	16e 16g 16cc
.	.	(32EJJJ	.
=92	=92	=92	=92
4.D	4.V7	16GLL)	16r
.	.	32r	16c 16e 16b-
.	.	(32GJJJ	.
.	.	4B-;)	16r
.	.	.	8.c; 8.e; 8.g;
=93	=93	=93	=93
4.T	4.Ib	16AALL	16r
.	.	32r	16f 16ff
.	.	(32CJ	.
.	.	16F)	16r
.	.	32r	16f 16ff
.	.	(32AAJ	.
.	.	16C)	16r
.	.	32r	16f 16ff
.	.	(32FJJJ	.
=94	=94	=94	=94
8.P	8.ii7b	16BB-LL)	16r
.	.	32r	16g 16ff 16gg
.	.	(32DJ	.
.	.	16G)	16r
8.P	8.V7b/V	32r	16g 16ff 16gg
.	.	(32BBJ	.
.	.	16D)	16r
.	.	32r	16g 16ff 16gg
.	.	(32GJJJ	.
=95	=95	=95	=95
8D	8Cc	16CLL)	16r
.	.	32r	16a 16ff 16aa
.	.	(32cJ	.
4D	4V7	16C)	16r
.	.	32r	16b- 16ee 16bb-
.	.	(32cJ	.
.	.	16C)	16r
.	.	32r	16b- 16ee 16gg
.	.	(32cJJJ	.
=96	=96	=96	=96
4.T	4.I	16FLL)	16r
.	.	32r	16a 16ff
.	.	(32FJ	.
.	.	16C)	16r
.	.	32r	16A 16f
.	.	(32AAJJJ	.
.	.	8FF)	8r
=97	=97	=97	=97
4.T	4.I	48FFFLLL	16r
.	.	48CC	.
.	.	48FFJJ	.
.	.	16r	48AALL
.	.	.	48C
.	.	.	48FJJ
.	.	48FFLL	16r
.	.	48C	.
.	.	48FJJJ	.
.	.	16r	48ALLL
.	.	.	48c
.	.	.	48fJJJ
.	.	48FLLL	16r
.	.	48A	.
.	.	48cJJJ	.
.	.	16r	48aLLL
.	.	.	48cc
.	.	.	48ffJJJ
=98	=98	=98	=98
4.T	4.Vb	8E 8G 8c	(16aaLL
.	.	.	16gg
.	.	8r	16ff
.	.	.	16ee
.	.	8r	16dd
.	.	.	16ccJJ)
=99	=99	=99	=99
4.T	4.V7	48CCLLL	16r
.	.	48GG	.
.	.	48CJJ	.
.	.	16r	48ELL
.	.	.	48G
.	.	.	48B-JJ
.	.	48CLL	16r
.	.	48G	.
.	.	48B-JJJ	.
.	.	16r	48eLLL
.	.	.	48g
.	.	.	48b-JJJ
.	.	48B-LLL	16r
.	.	48e	.
.	.	48gJJJ	.
.	.	16r	48eeLLL
.	.	.	48gg
.	.	.	48bb-JJJ
=100	=100	=100	=100
4.T	4.Ib	8F 8A 8d	(16dddLL
.	.	.	16ccc
.	.	8r	16bb-
.	.	.	16aa
.	.	8r	16gg
.	.	.	16ffJJ)
=101	=101	=101	=101
4T	4IV/V[I]	48FFLLL	16r
.	.	48C	.
.	.	48FJJ	.
.	.	16r	48cLL
.	.	.	48f
.	.	.	48aJJ
.	.	48FLL	16r
.	.	48c	.
.	.	48fJJJ	.
.	.	16r	48ccLLL
.	.	.	48ff
.	.	.	48aaJJJ
*	*	*clefG2	*
8T	8V7d/V	48fLLL	16r
.	.	48g	.
.	.	48bJJJ	.
.	.	16r	48ddLLL
.	.	.	48gg
.	.	.	48bbJJJ
=102	=102	=102	=102
4.T	4.Ib/V	8e 8g 8cc	(16cccLL
.	.	.	16bb
.	.	8r	16aa
.	.	.	16gg
.	.	8r	16ff
.	.	.	16eeJJ)
*	*	*clefF4	*
=103	=103	=103	=103
8P	8iib/V	16FLL	(16ccLL 16dd
.	.	16f	16aa
8P	8Cc/V	16G	16cc
.	.	16e	16gg
8P	8V7/V	16G	16f
.	.	16dJJ	16bJJ)
=104	=104	=104	=104
*	*	*^	*
4.D	4.V	16r	4.C	(4f 4dd
.	.	16GLL	.	.
.	.	16A	.	.
.	.	16BJ	.	.
.	.	8cJ	.	8e) 8cc
*	*	*v	*v	*
=105	=105	=105	=105
4.T	4.Ib	48AALLL	16r
.	.	48C	.
.	.	48FJJJ	.
.	.	16r	48ALLL
.	.	.	48c
.	.	.	48fJJJ
.	.	48ALLL	16r
.	.	48c	.
.	.	48fJJJ	.
.	.	16r	48aLLL
.	.	.	48cc
.	.	.	48ffJJJ
*	*	*clefG2	*
.	.	48aLLL	16r
.	.	48cc	.
.	.	48ffJJJ	.
.	.	16r	48aaLLL
.	.	.	48ccc
.	.	.	48fffJJJ
=106	=106	=106	=106
4T	4IVb	4b- 4ff	16r
.	.	.	(16dddLL
.	.	.	16fff
.	.	.	16ddd
8T	8Ic	8a 8ff	16bb
.	.	.	16cccJJ)
=107	=107	=107	=107
*	*	*clefF4	*
4.T	4.Ib	48AALLL	16r
.	.	48C	.
.	.	48FJJJ	.
.	.	16r	48ALLL
.	.	.	48c
.	.	.	48fJJJ
.	.	48ALLL	16r
.	.	48c	.
.	.	48fJJJ	.
.	.	16r	48aLLL
.	.	.	48cc
.	.	.	48ffJJJ
*	*	*clefG2	*
.	.	48aLLL	16r
.	.	48cc	.
.	.	48ffJJJ	.
.	.	16r	48aaLLL
.	.	.	48ccc
.	.	.	48fffJJJ
=108	=108	=108	=108
4T	4IVb	4b- 4ff	16r
.	.	.	(16dddLL
.	.	.	16fff
.	.	.	16ddd
8T	8Ic	8a 8ff	16bb
.	.	.	16cccJJ)
=109	=109	=109	=109
4.T	4.V7	16r	(48bb-LLL
.	.	.	48gg
.	.	.	48eeJ
.	.	(48b-LLL	16cc'JJ)
.	.	48g	.
.	.	48eJJJ	.
.	.	16c')	(48b-LLL
.	.	.	48g
.	.	.	48eJ
*	*	*clefF4	*
.	.	(48B-LLL	16c'JJ)
.	.	48G	.
.	.	48EJJJ	.
.	.	16C')	(48B-LLL
.	.	.	48G
.	.	.	48EJJ
.	.	(48BB-LLL	16C'JJ)
.	.	48GG	.
.	.	48EEJJJ	.
=110	=110	=110	=110
4.T	4.V7	16CC')	(48B-LLL
.	.	.	48G
.	.	.	48EJJ
.	.	(48BB-LLL	16C'JJ)
.	.	48GG	.
.	.	48EEJJJ	.
.	.	16CC')	16r
.	.	8.BB-;	8.C; 8.E; 8.G;
=111	=111	=111	=111
4.T	4.Ib	48AAALLL	16r
.	.	48CC	.
.	.	48FFJJJ	.
.	.	16r	48AALLL
.	.	.	48C
.	.	.	48FJJJ
.	.	48AALLL	16r
.	.	48C	.
.	.	48FJJJ	.
.	.	16r	48ALLL
.	.	.	48c
.	.	.	48fJJJ
.	.	48ALLL	16r
.	.	48c	.
.	.	48fJJJ	.
.	.	16r	48aLLL
.	.	.	48cc
.	.	.	48ffJJJ
=112	=112	=112	=112
4.P	4.iib	48BB-LLL	16r
.	.	48D	.
.	.	48GJJJ	.
.	.	16r	48B-LLL
.	.	.	48d
.	.	.	48gJJJ
*	*	*clefG2	*
.	.	16B- 16d 16g	16r
.	.	16r	8.dd 8.ddd
.	.	8r	.
=113	=113	=113	=113
4D	4Cc	8c 8f 8a	(16cccLL
.	.	.	16aa
.	.	8r	16ff
.	.	.	16cc
*	*	*clefF4	*
8D	8V7	8C 8G	16b-
.	.	.	16eJJ)
=114	=114	=114	=114
4.T	4.I	8F 8A	(16fLL
.	.	.	16a
.	.	8r	16cc
.	.	.	16ff
.	.	8r	16aa
.	.	.	16cccJJ)
=115	=115	=115	=115
4.D	4.V7	16r	(48bb-LLL
.	.	.	48gg
.	.	.	48eeJ
.	.	(48b-LLL	16cc'JJ)
.	.	48g	.
.	.	48eJJJ	.
.	.	16c')	(48b-LLL
.	.	.	48g
.	.	.	48eJ
*	*	*clefF4	*
.	.	(48B-LLL	16c'JJ)
.	.	48G	.
.	.	48EJJJ	.
.	.	16C')	(48B-LLL
.	.	.	48G
.	.	.	48EJJ
.	.	(48BB-LLL	16C'JJ)
.	.	48GG	.
.	.	48EEJJJ	.
=116	=116	=116	=116
4.D	4.V7	16CC')	(48B-LLL
.	.	.	48G
.	.	.	48EJJ
.	.	(48BB-LLL	16C'JJ)
.	.	48GG	.
.	.	48EEJJJ	.
.	.	16CC')	16r
.	.	8.BB-;	8.C; 8.E; 8.G;
=117	=117	=117	=117
4.T	4.Ib	48AAALLL	16r
.	.	48CC	.
.	.	48FFJJJ	.
.	.	16r	48AALLL
.	.	.	48C
.	.	.	48FJJJ
.	.	48AALLL	16r
.	.	48C	.
.	.	48FJJJ	.
.	.	16r	48ALLL
.	.	.	48c
.	.	.	48fJJJ
.	.	48ALLL	16r
.	.	48c	.
.	.	48fJJJ	.
.	.	16r	48aLLL
.	.	.	48cc
.	.	.	48ffJJJ
=118	=118	=118	=118
4.P	4.iib	48BB-LLL	16r
.	.	48D	.
.	.	48GJJJ	.
.	.	16r	48B-LLL
.	.	.	48d
.	.	.	48gJJJ
*	*	*clefG2	*
.	.	16B- 16d 16g	16r
.	.	16r	8.dd 8.ddd
.	.	8r	.
=119	=119	=119	=119
4D	4Cc	8c 8f 8a	(16cccLL
.	.	.	16aa
.	.	8r	16ff
.	.	.	16cc
*	*	*clefF4	*
8D	8V7	8C 8G	16b-
.	.	.	16eJJ)
=120	=120	=120	=120
4.T	4.I	16r	48fLLL
.	.	.	48c
.	.	.	48AJJJ
.	.	48FLLL	16r
.	.	48C	.
.	.	48AAJJJ	.
.	.	16r	48FLLL
.	.	.	48C
.	.	.	48AAJJJ
.	.	48FFLLL	16r
.	.	48CC	.
.	.	48AAAJJJ	.
.	.	8FFF	8r
=121	=121	=121	=121
4.T	4.i	(8DDL	16r
.	.	.	16ALL 16d 16f
.	.	8FF	16A 16d 16f
.	.	.	16A 16d 16f
.	.	8DDJ)	16A 16d 16f
.	.	.	16AJJ 16d 16f
=122	=122	=122	=122
4.T	4.V	(16AALL	16ALL 16c# 16e
.	.	16GG#	16A 16c# 16e
.	.	16AA	16A 16c# 16e
.	.	16BB-J	16A 16c# 16e
.	.	8AAJ)	16A 16c# 16e
.	.	.	16AJJ 16c# 16e
=123	=123	=123	=123
4.T	4.V7d	(8GGL	16ALL 16c# 16e
.	.	.	16A 16c# 16e
.	.	8EE	16A 16c# 16e
.	.	.	16A 16c# 16e
.	.	8AAJ)	16A 16c# 16e
.	.	.	16AJJ 16c# 16e
=124	=124	=124	=124
4T	4ib	(16GGLL	16ALL 16d 16f
.	.	16FF	16A 16d 16f
.	.	16EE	16A 16d 16f
.	.	16FFJ)	16A 16d 16f
8T	8i	8DDJ	16A 16d 16f
.	.	.	16AJJ 16d 16f
=125	=125	=125	=125
4T	4i	(8DDL	16ALL 16d 16f
.	.	.	16A 16d 16f
.	.	8FF	16A 16d 16f
.	.	.	16A 16d 16f
8T	8IV7	8GGJ)	16B 16d 16f
.	.	.	16BJJ 16d 16f
=126	=126	=126	=126
4T	4V7b/v	(16AALL	16BLL 16d 16e
.	.	16GG#	16B 16d 16e
.	.	16AA	16B 16c 16e
.	.	16BBJ)	16B 16c 16e
8T	8ib/v	8CJ	16A 16c 16e
.	.	.	16AJJ 16c 16e
=127	=127	=127	=127
8P	8V7c/v	(16CLL	16G#LL 16d 16e
.	.	16BBJ	16G# 16d 16e
8P	8i/v	8AA	16A 16c 16e
.	.	.	16A 16c 16e
8P	8V7b/v	8GG#J)	16B 16d 16e
.	.	.	16BJJ 16d 16e
=128	=128	=128	=128
4D	4i/v	4.AA	16ALL 16c 16e
.	.	.	16A 16c 16e
.	.	.	16A 16c 16e
.	.	.	16A 16c 16e
8D	8V	.	16A 16c# 16e
.	.	.	16AJJ 16c# 16e
=129	=129	=129	=129
4D	4ic	8AAL	16ALL 16d 16f
.	.	.	16A 16d 16f
.	.	8AA	16A 16d 16f
.	.	.	16A 16d 16f
8D	8V/iv	8DJ	16A 16d 16f#
.	.	.	16AJJ 16d 16f#
=130	=130	=130	=130
8D	8ivb	(4BB-	16dLL 16g
.	.	.	16d 16g
8D	8Lt	.	16d 16g#
.	.	.	16d 16g#
8D	8ic	8AA)	16d 16f 16a
.	.	.	16dJJ 16f 16a
=131	=131	=131	=131
4D	4ic	8AAL	16dLL 16f 16dd
.	.	.	16d 16f 16dd
.	.	8AA	16d 16f 16dd
.	.	.	16d 16f 16dd
8D	8V/iv	8DJ	16d 16f# 16dd
.	.	.	16dJJ 16f# 16dd
=132	=132	=132	=132
8D	8ivb	(4BB-	16dLL 16g 16dd
.	.	.	16d 16g 16dd
8D	8Lt	.	16d 16g# 16dd
.	.	.	16d 16g# 16dd
8D	8ic	8AA)	16d 16f 16a 16dd
.	.	.	16dJJ 16f 16a 16dd
=133	=133	=133	=133
4.D	4.V7	8G'L	16eLL 16a 16cc#
.	.	.	16e 16a 16cc#
.	.	8E'J	16e 16a 16cc#
.	.	.	16e 16a 16cc#
.	.	8r	16e 16a 16cc#
.	.	.	16eJJ 16a 16cc#
=134	=134	=134	=134
4.D	4.V7	8C#	16gLL 16a 16ee
.	.	.	16gJJ 16a 16ee
.	.	4AA;	4g; 4cc#; 4ee;
=135	=135	=135	=135
4.T	4.i	(8DL	16r
.	.	.	16d 16dd
.	.	8DD	16r
.	.	.	16d 16dd
.	.	8FFJ	16r
.	.	.	16d 16dd
=136	=136	=136	=136
4P	4iiom7b	8GGL	16r
.	.	.	16e 16dd
.	.	8BB-	16r
.	.	.	16e 16dd
8P	8V7b/V	8GG#J	16r
.	.	.	16e 16dd
=137	=137	=137	=137
8D	8Cc	8AAL	16r
.	.	.	16f 16dd
4D	4V7	8AAA	16r
.	.	.	16g 16ee
.	.	8AAJ)	16r
.	.	.	16e 16cc#
=138	=138	=138	=138
4.T	4.i	4DD	16r
.	.	.	16dd
.	.	.	16aLL 16aa
.	.	.	16a 16aa
.	.	8r	16a 16aa
.	.	.	16aJJ 16aa
=139	=139	=139	=139
4.D	4.V7	16GG 16G	16r
.	.	16r	16g 16gg
.	.	16EE 16E	16r
.	.	16r	16e 16ee
.	.	8r	8r
=140	=140	=140	=140
4.D	4.V7	16CC# 16C#	16r
.	.	16r	16c# 16cc#
.	.	16AAA 16AA	16r
.	.	16r	16A 16a
.	.	8r	8r
=141	=141	=141	=141
4.T	4.i	(8DL	16r
.	.	.	16d 16dd
.	.	8DD	16r
.	.	.	16d 16dd
.	.	8FFJ	16r
.	.	.	16d 16dd
=142	=142	=142	=142
4P	4iiom7b	8GGL	16r
.	.	.	16e 16dd 16ee
.	.	8BB-	16r
.	.	.	16e 16dd 16ee
8P	8V7b/V	8GG#J	16r
.	.	.	16e 16dd 16ee
=143	=143	=143	=143
8D	8Cc	8AAL	16r
.	.	.	16f 16dd 16ff
4D	4V7	8AAA	16r
.	.	.	16g 16ee 16gg
.	.	8AAJ	16r
.	.	.	16e 16cc# 16ee
=144	=144	=144	=144
8T	8i	8DDL 8D	16r
.	.	.	16d 16dd
=145	=145	=145	=145
4.T	4.I	16BBB-LL 16BB-	(8b-L
.	.	16B-JJ 16d	.
.	.	16r	8dd
.	.	16B- 16d	.
.	.	16r	8b-J
.	.	16B- 16d	.
=146	=146	=146	=146
4.T	4.V	16FLL	8eL 8ee
.	.	16AJJ 16c	.
.	.	16r	8g 8gg
.	.	16A 16c	.
.	.	16r	8fJ 8ff
.	.	16A 16c	.
=147	=147	=147	=147
4.T	4.V7	16FFLL	8e-L 8ee-
.	.	16E-JJ 16A	.
.	.	16r	8c 8cc
.	.	16E- 16A	.
.	.	16r	8fJ 8ff
.	.	16E- 16A	.
=148	=148	=148	=148
4.T	4.I	16BBB-LL 16BB-	8dL 8dd
.	.	16DJJ 16F	.
.	.	16r	8A 8a
.	.	16C 16E-	.
.	.	16r	8B-J 8b-
.	.	16BB- 16D	.
=149	=149	=149	=149
4T	4ii/V	16GGLL	8b-L
.	.	16GJJ 16B-	.
.	.	16r	8d 8dd
.	.	16G 16B-	.
8T	8viio/V	16r	8eJ 8ee
.	.	16G 16B-	.
=150	=150	=150	=150
4.T	4.I/V	16FFLL	8fL 8ff
.	.	16AJJ 16c	.
.	.	16r	8a) 8aa
.	.	16A 16c	.
.	.	16r	8ccJ 8ccc
.	.	16A 16c	.
=151	=151	=151	=151
8P	8iib/V	16BB-LL	(16ccLL 16ccc
.	.	16d 16g	16b-) 16bb-
8P	8Cc/V	16C	(16b- 16bb-
.	.	16c 16f	16a) 16aa
8P	8V7/V	16C	(16a 16aa
.	.	16B-JJ 16e	16gJJ) 16gg
=152	=152	=152	=152
4.D	4.V	8F 8A 8c	(16gLL 16gg
.	.	.	16f) 16ff
.	.	8r	(16e 16ee
.	.	.	16f) 16ff
.	.	8r	(16e 16ee
.	.	.	16fJJ) 16ff
=153	=153	=153	=153
4T	4Ib	16r	(8fL 8ff
.	.	16D 16B-	.
.	.	16r	8b- 8bb-
.	.	16D 16B-	.
8T	8V7b/IV	16r	8a-J 8aa-
.	.	16D 16B-	.
=154	=154	=154	=154
4T	4IV	16r	8f#L 8ff#
.	.	16E- 16B-	.
.	.	16r	8g) 8gg
.	.	16E- 16B-	.
8T	8Ib	16r	8fJ 8ff
.	.	16D 16B-	.
=155	=155	=155	=155
4T	4Ib	16r	(8fL 8ff
.	.	16D 16B-	.
.	.	16r	8b- 8bb-
.	.	16D 16B-	.
8T	8V7b/IV	16r	8a-J 8aa-
.	.	16D 16B-	.
=156	=156	=156	=156
4T	4IV	16r	8f#L 8ff#
.	.	16E- 16B-	.
.	.	16r	8g) 8gg
.	.	16E- 16B-	.
8T	8Ib	16r	8fJ 8ff
.	.	16D 16B-	.
=157	=157	=157	=157
4.T	4.V7	16r	8e-' 8ee-'
.	.	16F	.
.	.	16r	4e- 4a 4cc
.	.	16FLL	.
.	.	16F	.
.	.	16FJJ	.
=158	=158	=158	=158
4.T	4.V7	16r	8c' 8e-' 8a'
.	.	16FFF 16FF	.
.	.	16r	4A; 4c; 4e-;
.	.	16FFFLL 16FF	.
.	.	16FFF 16FF	.
.	.	16FFF;JJ 16FF;	.
=159	=159	=159	=159
4.T	4.Ib	16r	(8b-L 8bb-
.	.	16D 16B-	.
.	.	16r	8f 8ff
.	.	16D 16B-	.
.	.	16r	8f#J 8ff#
.	.	16D 16B-	.
=160	=160	=160	=160
4P	4iib	16r	8gL 8gg
.	.	16E- 16B-	.
.	.	16r	8c 8cc
.	.	16E- 16B-	.
8P	8viio/V	16r	8c#J 8cc#
.	.	16E 16B-	.
=161	=161	=161	=161
8D	8Cc	16r	8dL 8dd
.	.	16F 16B-	.
4D	4V7	16r	8e-) 8ee-
.	.	16F 16c	.
.	.	16r	8cJ 8cc
.	.	16F 16A	.
=162	=162	=162	=162
4.T	4.I	8BB- 8B-	16r
.	.	.	(16b-LL
.	.	8r	16a
.	.	.	16b-
.	.	8r	16cc
.	.	.	16ddJJ)
=163	=163	=163	=163
4.D	4.V7	16r	8a' 8cc' 8ee-'
.	.	16F	.
.	.	16r	4e- 4a 4cc
.	.	16FLL	.
.	.	16F	.
.	.	16FJJ	.
=164	=164	=164	=164
4.D	4.V7	16r	8c' 8e-' 8a'
.	.	16FFF 16FF	.
.	.	16r	4F; 4A; 4c; 4e-;
.	.	16FFFLL 16FF	.
.	.	16FFF 16FF	.
.	.	16FFF;JJ 16FF;	.
=165	=165	=165	=165
4.T	4.Ib	16r	(8b-L 8bb-
.	.	16D 16B-	.
.	.	16r	8f 8ff
.	.	16D 16B-	.
.	.	16r	8f#J 8ff#
.	.	16D 16B-	.
=166	=166	=166	=166
4P	4iib	16r	8gL 8gg
.	.	16E- 16B-	.
.	.	16r	8c 8cc
.	.	16E- 16B-	.
8P	8viio/V	16r	8c#J 8cc#
.	.	16E 16B-	.
=167	=167	=167	=167
8D	8Cc	16r	8dL 8dd
.	.	16F 16B-	.
4D	4V7	16r	8e- 8ee-
.	.	16F 16c	.
.	.	16r	8cJ 8cc
.	.	16F 16A	.
=168	=168	=168	=168
8T	8I	16r	8B-L 8b-
.	.	16BB-	.
=169	=169	=169	=169
*	*	*^	*
4.T	4.I	16FFLL	4.FF	8fL
.	.	16C	.	.
.	.	16F	.	8.a
.	.	16C	.	.
.	.	16F	.	.
.	.	16CJJ	.	16fJk
=170	=170	=170	=170	=170
4.T	4.Vb	16EELL	4.EE	(8dd
.	.	16C	.	.
.	.	16G	.	4cc)
.	.	16C	.	.
.	.	16G	.	.
.	.	16CJJ	.	.
=171	=171	=171	=171	=171
.	.	.	.	q32dd
.	.	.	.	q32cc
.	.	.	.	q32b
4.T	4.Vb	16EELL	4.EE	(32ccLLL
.	.	.	.	32dd
.	.	16C	.	32ee
.	.	.	.	32ffJJJ
.	.	16G	.	32aaLLL
.	.	.	.	32gg
.	.	16C	.	32ff
.	.	.	.	32eeJJJ
.	.	16G	.	32ddLLL
.	.	.	.	32cc
.	.	16CJJ	.	32dd
.	.	.	.	32gJJJ)
=172	=172	=172	=172	=172
4.T	4.I	16FFLL	4.FF	(8b-
.	.	16C	.	.
.	.	16F	.	4a)
.	.	16C	.	.
.	.	16F	.	.
.	.	16CJJ	.	.
=173	=173	=173	=173	=173
4T	4IVb/V[Ib]	16AALL	4AA	[8f
.	.	16C	.	.
.	.	16F	.	32fLLL]
.	.	.	.	(64gL
.	.	.	.	64aJJJ
.	.	16C	.	64b-LLL
.	.	.	.	64cc
.	.	.	.	64dd
.	.	.	.	64eeJJJJ)
8T	8IV/V	16AA	8FF	(64ffLLLL
.	.	.	.	64ee
.	.	.	.	64ff
.	.	.	.	64ggJJJ
.	.	16CJJ	.	64aaLLL
.	.	.	.	64gg
.	.	.	.	64aa
.	.	.	.	64bbJJJJ)
=174	=174	=174	=174	=174
4.T	4.Ib/V	16GGLL	4EE	(64cccLLLL
.	.	.	.	64bb
.	.	.	.	64ccc
.	.	.	.	64dddJJ)
.	.	16C	.	[16eeeJJ
.	.	16GG	.	(32eeeLLL]
.	.	.	.	32ddd)
.	.	16C	.	(32ccc
.	.	.	.	32bb-JJ)
.	.	16GG	8EE	(32aaLL
.	.	.	.	32gg)
.	.	16CJJ	.	(32ff
.	.	.	.	32eeJJJ)
*	*	*v	*v	*
=175	=175	=175	=175
8P	8iib/V	16FFLL 16AA	(64eeLLLL
.	.	.	64dd
.	.	.	64cc#
.	.	.	64ddJJJ
.	.	16D	64ffLLL
.	.	.	64aa
.	.	.	64ff
.	.	.	64ddJJJJ)
8P	8Cc/V	16GG 16C	64r
.	.	.	(64ccLLLL
.	.	.	64b
.	.	.	64ccJJJ
.	.	16E	64eeLLL
.	.	.	64gg
.	.	.	64ee
.	.	.	64ccJJJJ)
8P	8V7/V	16GG 16D	64r
.	.	.	(64bLLLL
.	.	.	64a#
.	.	.	64bJJJ
.	.	16FJJ	64ddLLL
.	.	.	64ff
.	.	.	64dd
.	.	.	64bJJJJ)
=176	=176	=176	=176
*	*	*^	*
4.D	4.V	16r	4C	(8ddL
.	.	(16FLL	.	.
.	.	16E	.	8ccJ)
.	.	16G	.	.
.	.	16E	8BB-	8r
.	.	16CJJ)	.	.
*	*	*v	*v	*
=177	=177	=177	=177
4.T	4.Ib	16AALL	(8cL
.	.	16F	.
.	.	16C	8.f
.	.	16F	.
.	.	16AA	.
.	.	16FJJ	16cJk)
=178	=178	=178	=178
4T	4IV	16BB-LL	(8eL
.	.	16F	.
.	.	16BB-	8d
.	.	16F	.
.	.	.	q32c
.	.	.	q32e
.	.	.	q32d
8T	8Ib	16BB-	8cJ)
.	.	16FJJ	.
=179	=179	=179	=179
4.T	4.I	16FFLL	(96ALLLL
.	.	.	96c
.	.	.	96B-JJJ
.	.	.	96ALLL
.	.	.	96B-
.	.	.	96cJJJ
.	.	16F	96dLLL
.	.	.	96e
.	.	.	96fJJJ
.	.	.	96gLLL
.	.	.	96a
.	.	.	96b-JJJJ
.	.	16AA	96ccLLLL
.	.	.	96dd
.	.	.	96eeJJJ
.	.	.	96ffLLL
.	.	.	96gg
.	.	.	96aaJJJ
.	.	16F	96bb-LLL
.	.	.	96aa
.	.	.	96cccJJJ
.	.	.	96bb-LLL
.	.	.	96ddd
.	.	.	96cccJJJJ
.	.	16C	64bb-LLLL
.	.	.	64aa
.	.	.	64gg
.	.	.	64ffJJJ
.	.	16FJJ	64eeLLL
.	.	.	64ff
.	.	.	64gg
.	.	.	64ffJJJJ)
=180	=180	=180	=180
4T	4IV	16BB-LL	(8eeL
.	.	16F	.
.	.	16BB-	8dd
.	.	16F	.
.	.	.	q32cc
.	.	.	q32ee
.	.	.	q32dd
8T	8Ib	16AA	8ccJ)
.	.	16FJJ	.
=181	=181	=181	=181
4.T	4.V7	16CCLL	32b-
.	.	.	64r
.	.	.	(64bb-LKKK
.	.	16C	48aaLL
.	.	.	48ccc
.	.	.	48bb-JJJ)
.	.	16E	32r
.	.	.	64r
.	.	.	(64ggLKKK
.	.	16C	48ff#LL
.	.	.	48aa
.	.	.	48ggJJJ)
.	.	16G	32r
.	.	.	64r
.	.	.	(64eeLKKK
.	.	16CJJ	48dd#LL
.	.	.	48ff
.	.	.	48eeJJJ)
=182	=182	=182	=182
4.T	4.V7	16GLL 16B-	32r
.	.	.	64r
.	.	.	(64b-LKKK
.	.	16CJJ	48aLL
.	.	.	48cc
.	.	.	48b-JJJ)
.	.	8C; 8E; 8G;	[8g;
.	.	8r	64gLLLL]
.	.	.	(64a
.	.	.	64b-
.	.	.	64bJJJ
.	.	.	64ccLLL
.	.	.	64cc#
.	.	.	64dd
.	.	.	64eeJJJJ)
=183	=183	=183	=183
*	*	*^	*
4.T	4.Ib	16AALL	4AA	[8ff
.	.	16F	.	.
.	.	16C	.	32ffLLL]
.	.	.	.	(32ee
.	.	16F	.	32dd
.	.	.	.	32ccJJJ
.	.	16AA	8AA	32ddLLL
.	.	.	.	32cc
.	.	16FJJ	.	32b-
.	.	.	.	32aJJJ)
=184	=184	=184	=184	=184
4.P	4.iib	16BB-LL	4BB-	(16f#LL
.	.	16G	.	[16gJJ)
.	.	16D	.	16gLL]
.	.	16G	.	(32.gL
.	.	.	.	64aJJk
.	.	16BB-	8BB-	32b-LL
.	.	.	.	32cc
.	.	16GJJ	.	32cc#
.	.	.	.	32ddJJJ)
=185	=185	=185	=185	=185
4D	4Cc	16CLL	4C	(16bLL
.	.	16A	.	[16ccJJ)
.	.	16F	.	32ccLLL]
.	.	.	.	(32cc#
.	.	16A	.	32dd
.	.	.	.	32ccJJJ
8D	8V7	16E	8C	32ccLLL
.	.	.	.	32b-
.	.	16B-JJ	.	32a
.	.	.	.	32gJJJ)
=186	=186	=186	=186	=186
4.T	4.I	8A	8F	32f'LLL
.	.	.	.	32a'
.	.	.	.	32b-'
.	.	.	.	32cc'JJJ
.	.	8r	8r	32dd'LLL
.	.	.	.	32ee'
.	.	.	.	32ff'
.	.	.	.	32gg'JJJ
.	.	8r	8r	32aa-'LLL
.	.	.	.	32aa'
.	.	.	.	32bb-'
.	.	.	.	32bb'JJJ
*	*	*v	*v	*
=187	=187	=187	=187
4.D	4.V7	16g 16b-	32cccLLL
.	.	.	32ccc
.	.	16r	32ccc
.	.	.	32cccJJJ
.	.	16e 16g	32cccLLL
.	.	.	32ccc
.	.	16r	32ccc
.	.	.	32cccJJJ
.	.	8r	32cccLLL
.	.	.	32ccc
.	.	.	32ccc
.	.	.	32cccJJJ
*	*	*clefF4	*
=188	=188	=188	=188
4.D	4.V7	16G'LL 16B-'	32cccLLL
.	.	.	32ccc
.	.	16E'JJ 16G'	32ccc
.	.	.	32cccJJJ
.	.	16GG'LL 16BB-'	32cccLLL
.	.	.	32ccc
.	.	16EE'JJ 16GG'	32ccc
.	.	.	32cccJJJ
*	*	*clefG2	*
.	.	16g'LL 16b-'	32cccLLL
.	.	.	32ccc
.	.	16e'JJ 16g'	32ccc
.	.	.	32cccJJJ
=189	=189	=189	=189
4.D	4.V7c	16gg'LL	32r
.	.	.	32bb- 32ccc
.	.	16ee'	32r
.	.	.	32gg 32ccc
.	.	16gg'	32r
.	.	.	32bb- 32ccc
.	.	16ee'	32r
.	.	.	32gg 32ccc
.	.	16gg'	32r
.	.	.	32bb- 32ccc
.	.	16ee'JJ	32r
.	.	.	32gg 32ccc
=190	=190	=190	=190
4.D	4.V7c	32gg'LLL	64r
.	.	.	64bb- 64ccc
.	.	32ee'	64r
.	.	.	64gg 64ccc
.	.	32ff'	64r
.	.	.	64aa- 64ccc
.	.	32ff#'JJJ	64r
.	.	.	64aa 64ccc
.	.	32gg'LLL	64r
.	.	.	64bb- 64ccc
.	.	32ee'	64r
.	.	.	64gg 64ccc
.	.	32ff'	64r
.	.	.	64aa- 64ccc
.	.	32ff#'JJJ	64r
.	.	.	64aa 64ccc
.	.	32gg'LLL	64r
.	.	.	64bb- 64ccc
.	.	32ee'	64r
.	.	.	64gg 64ccc
.	.	32ff'	64r
.	.	.	64aa- 64ccc
.	.	32ff#'JJJ	64r
.	.	.	64aa 64ccc
=191	=191	=191	=191
4.D	4.V7c	32gg'LLL	64r
.	.	.	64bb- 64ccc
.	.	32ff#'	64r
.	.	.	64aa 64ccc
.	.	32gg'	64r
.	.	.	64bb- 64ccc
.	.	32ff#'JJJ	64r
.	.	.	64aa 64ccc
.	.	32gg'LLL	64r
.	.	.	64bb- 64ccc
.	.	32ff#'	64r
.	.	.	64aa 64ccc
.	.	32gg'	64r
.	.	.	64bb- 64ccc
.	.	32ff#'JJJ	64r
.	.	.	64aa 64ccc
.	.	32gg'LLL	64r
.	.	.	64bb- 64ccc
.	.	32ff#'	64r
.	.	.	64aa 64ccc
.	.	32gg'	64r
.	.	.	64bb- 64ccc
.	.	32ff#'JJJ	64r
.	.	.	64aa 64ccc
=192	=192	=192	=192
4.D	4.V7c	4.gg;	4.bb-;
.	.	.	q4bb
.	.	.	q4ccc
.	.	.	q4ccc#
.	.	.	q4ddd
.	.	.	q4eee
.	.	.	q16ddd
.	.	.	q16eee
=193	=193	=193	=193
*	*	*clefF4	*
*	*	*^	*
4.T	4.Ib	16AALL	4AA	[8fff
.	.	16F	.	.
.	.	16C	.	64fffLLLL]
.	.	.	.	(64eee
.	.	.	.	64ddd
.	.	.	.	64ccc
.	.	16F	.	64bbn
.	.	.	.	64ccc
.	.	.	.	64ddd
.	.	.	.	64cccJJJJ
.	.	16AA	8AA	64bb-LLLL
.	.	.	.	64aa
.	.	.	.	64gg
.	.	.	.	64ffJJJ
.	.	16FJJ	.	64eeLLL
.	.	.	.	64ff
.	.	.	.	64aa
.	.	.	.	64ffJJJJ
=194	=194	=194	=194	=194
4.P	4.iib	16BB-LL	4BB-	64eeLLLL
.	.	.	.	64dd
.	.	.	.	64cc#
.	.	.	.	64ddJJJ
.	.	16G	.	64eeLLL
.	.	.	.	64dd
.	.	.	.	64ff
.	.	.	.	64ddJJJJ
.	.	16D	.	64ccLLLL
.	.	.	.	64b-
.	.	.	.	64a
.	.	.	.	64b-JJJ
.	.	16G	.	64ccLLL
.	.	.	.	64b-
.	.	.	.	64dd
.	.	.	.	64b-JJJJ
.	.	16BB-	8BB-	64aLLLL
.	.	.	.	64g
.	.	.	.	64b-
.	.	.	.	64aJJJ
.	.	16GJJ	.	64ccLLL
.	.	.	.	64b-
.	.	.	.	64a
.	.	.	.	64gJJJJ)
=195	=195	=195	=195	=195
4D	4Ic	16CLL	4C	16ccLL
.	.	16F	.	[16aaJJ
.	.	16A	.	32aaLLL]
.	.	.	.	(64ggL
.	.	.	.	64ffJJJ
.	.	16c	.	64eeLLL
.	.	.	.	64dd
.	.	.	.	64cc
.	.	.	.	64bJJJJ
8D	8V7	(16E	8C	64ddLLLL
.	.	.	.	64cc
.	.	.	.	64b-
.	.	.	.	64aJJJ
.	.	16B-JJ)	.	64ccLLL
.	.	.	.	64b-
.	.	.	.	64a
.	.	.	.	64gJJJJ)
*	*	*v	*v	*
=196	=196	=196	=196
4.T	4.I	32r	(4B- 4c 4g
.	.	(32FF'LLL	.
.	.	32GG'	.
.	.	32AA'	.
.	.	32BB-'	.
.	.	32C'	.
.	.	32D'	.
.	.	32E'JJJ)	.
.	.	8FF; 8F;	8A;) 8c; 8f;
=197	=197	=197	=197
2T	2I	2r	8f
.	.	.	4a
.	.	.	8f
=198	=198	=198	=198
2T	2V	2r	4cc
.	.	.	(16bLL
.	.	.	16cc
.	.	.	16dd
.	.	.	16ccJJ)
=199	=199	=199	=199
2T	2V7	2r	8b-'L
.	.	.	8b-'
.	.	.	8g'
.	.	.	8cc'J
=200	=200	=200	=200
2T	2I	2r	8a'L
.	.	.	8cc'
.	.	.	8f'
.	.	.	8a'J
=201	=201	=201	=201
*	*	*	*^
2T	2V	2r	8c	8e'L
.	.	.	4e	8g'
.	.	.	.	8cc'
.	.	.	8c	8cc'J
=202	=202	=202	=202	=202
2T	2V7d/V	2r	4f	(8ccL
.	.	.	.	8bJ)
.	.	.	(16eLL	8r
.	.	.	16f	.
.	.	.	16g	8b
.	.	.	16fJJ)	.
=203	=203	=203	=203	=203
4P	4V7	2r	8e'L	8ggL
.	.	.	8e'	8b-J
4P	4viiob/IV	.	8c'	8r
.	.	.	8e-'J	8a
=204	=204	=204	=204	=204
4P	4IV	2r	8d'L	8b-L
.	.	.	8B-'	8ff
4P	4V7	.	8e'	8b-
.	.	.	8c'J	8ggJ
=205	=205	=205	=205	=205
2P	2I	8F	4a	8fL
.	.	4A	.	8c
.	.	.	8r	8f
.	.	8F	8a	8fJ
=206	=206	=206	=206	=206
2P	2V	4c	4g	(8fL
.	.	.	.	8eJ)
.	.	(16BLL	4r	8r
.	.	16c	.	.
.	.	16d	.	8e
.	.	16cJJ)	.	.
=207	=207	=207	=207	=207
2P	2V7d	8B-'L	8r	8ccL
.	.	8B-'	8cc'L	8e
.	.	8G'	8dd'	8f
.	.	8c'J	8ee'J	8gJ
*	*	*	*v	*v
=208	=208	=208	=208
2P	2Ib	8A'L	8a'L 8ff'
.	.	8F'J	8cc'J 8aa'
.	.	(16G#LL	4r
.	.	16A	.
.	.	16B-	.
.	.	16AJJ)	.
=209	=209	=209	=209
2P	2V7d/vi	8G'L	8r
.	.	8G'	8c#'L 8a'
.	.	8E'	8d' 8b'
.	.	8A'J	8e'J 8cc#'
=210	=210	=210	=210
2P	2vib	8F'L	8f'L 8dd'
.	.	8D'J	8a'J 8ff'
.	.	(16ELL	4r
.	.	16F	.
.	.	16G	.
.	.	16FJJ)	.
=211	=211	=211	=211
2P	2V7d/IV	8E-'L	8r
.	.	8E-'	8A'L 8f'
.	.	8C'	8B-' 8g'
.	.	8F'J	8c'J 8a'
=212	=212	=212	=212
2P	2I/IV	8D'L	8d 8b-
.	.	8F'	4dd
.	.	8BB-'	.
.	.	8D'J	8b-
=213	=213	=213	=213
2P	2V/IV	8AA'L	4ff
.	.	8C'	.
.	.	8FF'	(16eeLL
.	.	.	16ff
.	.	8AA'J	16gg
.	.	.	16ffJJ)
=214	=214	=214	=214
4P	4IVb/IV	8GG'L	8ee-'L
.	.	8BB-'	8ee-'
4P	4Vb/IV	8AA'	8cc'
.	.	8C'J	8ff'J
=215	=215	=215	=215
4P	4I/IV	8BB-'L	8dd'L
.	.	8D'	8b-'J
4P	4V/ii	8DD'	(16c#LL
.	.	.	16d
.	.	8FF#'J	16e-
.	.	.	16dJJ)
=216	=216	=216	=216
4P	4IVb/ii	8EE'L	8c'L
.	.	8GG'	8c'
4P	4Vb/ii	8FF#'	8A'
.	.	8AA'J	8d'J
=217	=217	=217	=217
4P	4ii	8GG'L	8B-'L
.	.	8BB-'	8G'J
4D	4Ib/V[Vb]	8EE'	(16bLL
.	.	.	16cc
.	.	8GG'J	16dd
.	.	.	16ccJJ)
=218	=218	=218	=218
4D	4IV/V	8FF'L	8a'L
.	.	8AA'	8f'J
4D	4viiob/V	8DD'	8ff'L
.	.	8D'J	8b'J
=219	=219	=219	=219
2D	2I/V	4CC	8cc'
.	.	.	4ee
.	.	4C	.
.	.	.	8cc
=220	=220	=220	=220
*	*	*	*^
4D	4ii/V	4CC	2ff	8a'
.	.	.	.	4dd
4D	4viio/V	4C	.	.
.	.	.	.	8b
=221	=221	=221	=221	=221
2D	2I/V	4CC	8ee'	8g
.	.	.	4ee	8r
.	.	4C	.	4r
.	.	.	8cc	.
=222	=222	=222	=222	=222
2D	2viio/V	4CC	2b	8d'
.	.	.	.	4f
.	.	4C	.	.
.	.	.	.	8d
=223	=223	=223	=223	=223
2D	2I/V	4CC	8cc	8e
.	.	.	4ee	8r
.	.	4C	.	4r
.	.	.	8cc	.
=224	=224	=224	=224	=224
4D	4ii/V	4CC	2ff	8a
.	.	.	.	4dd
4D	4viio/V	4C	.	.
.	.	.	.	8b
=225	=225	=225	=225	=225
2D	2I/V	4CC	8ee	8g
.	.	.	4ee	8r
.	.	4C	.	4r
.	.	.	8cc	.
=226	=226	=226	=226	=226
2D	2viio/V	4CC	2b	8d
.	.	.	.	4f
.	.	4C	.	.
.	.	.	.	8d
*	*	*	*v	*v
=227	=227	=227	=227
4D	4I/V	4CC	(4.e 4.cc
4D	4V/V	4C	.
.	.	.	8g) 8dd
=228	=228	=228	=228
4D	4I/V	4CC	(4.e 4.cc
4D	4V/V	4C	.
.	.	.	8g) 8dd
=229	=229	=229	=229
4D	4I/V	4CC	(4.e 4.cc
4D	4V/V	4C	.
.	.	.	8g) 8dd
=230	=230	=230	=230
2D	2I/V	2r	(8eL 8cc
.	.	.	8g 8dd
.	.	.	8e 8cc
.	.	.	8gJ) 8dd
=231	=231	=231	=231
2D	2I/V	2r	(8eL 8cc
.	.	.	8g 8dd
.	.	.	8e 8cc
.	.	.	8gJ) 8dd
=232	=232	=232	=232
2D	2I/V	2r	(8eL 8cc
.	.	.	8g 8dd
.	.	.	8e 8cc
.	.	.	8gJ) 8dd
=233	=233	=233	=233
2D	2I/V	2r	(8eL 8cc
.	.	.	8b
.	.	.	8cc
.	.	.	8bJ
=234	=234	=234	=234
2D	2I/V	2r	8ccL
.	.	.	8b
.	.	.	8cc
.	.	.	8bJ
=235	=235	=235	=235
2D	2I/V	2r	8ccL
.	.	.	8b
.	.	.	8cc
.	.	.	8bJ
=236	=236	=236	=236
2D	2I/V	2r	8ccL
.	.	.	8b
.	.	.	8cc
.	.	.	8bJ)
=237	=237	=237	=237
2T	2I	8r	8cc'L
.	.	(8FL	(8cc
.	.	8A	8ff)
.	.	8FJ	(8ffJ
=238	=238	=238	=238
4T	4IV	8B-L	8eeL
.	.	8F	8dd
4T	4Ib	8AJ)	8cc)
.	.	8r	(8bJ
*	*	*clefG2	*
=239	=239	=239	=239
2T	2I	8r	8ccL)
.	.	(8fL	(8cc
.	.	8a	8ff)
.	.	8fJ	(8ffJ
=240	=240	=240	=240
4T	4IV	8b-L	8eeL
.	.	8f	8dd
4T	4Ib	8aJ)	8cc)
.	.	8r	(8bJ
*	*	*clefF4	*
=241	=241	=241	=241
2T	2V	2r	8ccL
.	.	.	8b
.	.	.	8cc
.	.	.	8bJ
=242	=242	=242	=242
2T	2V	2r	8ccL
.	.	.	8b
.	.	.	8cc
.	.	.	8bJ)
=243	=243	=243	=243
2T	2I/-III	8r	8cc'L 8ee-'
.	.	(8A-L	(8ee-
.	.	8c	8aa-)
.	.	8A-J	(8aa-J
=244	=244	=244	=244
4T	4IV/-III	8d-L	8ggL
.	.	8A-	8ff
4T	4Ib/-III	8cJ)	8ee-)
.	.	8r	(8ddJ
*	*	*clefG2	*
=245	=245	=245	=245
2T	2I/-III	8r	8ee-L)
.	.	(8a-L	(8ee-
.	.	8cc	8aa-)
.	.	8a-J	(8aa-J
=246	=246	=246	=246
4T	4IV/-III	8dd-L	8ggL
.	.	8a-	8ff
4T	4Ib/-III	8ccJ)	8ee-)
.	.	8r	(8ddJ
*	*	*clefF4	*
=247	=247	=247	=247
2T	2V/-III	2r	8ee-L
.	.	.	8dd
.	.	.	8ee-
.	.	.	8ddJ
=248	=248	=248	=248
2T	2V/-III	2r	8ee-L
.	.	.	8dd
.	.	.	8ee-
.	.	.	8ddJ)
=249	=249	=249	=249
2T	2I/#IV	8r	8dd#'L 8ff#'
.	.	(8BL	(8ff#
.	.	8d#	8bb)
.	.	8BJ	(8bbJ
=250	=250	=250	=250
4T	4IV/#IV	8eL	8aa#L
.	.	8B	8gg#
4T	4Ib/#IV	8d#J)	8ff#)
.	.	8r	(8ee#J
*	*	*clefG2	*
=251	=251	=251	=251
2T	2I/#IV	8r	8ff#L)
.	.	(8bL	(8ff#
.	.	8dd#	8bb)
.	.	8bJ	(8bbJ
=252	=252	=252	=252
4T	4IV/#IV	8eeL	8aa#L
.	.	8b	8gg#
4T	4Ib/#IV	8dd#J)	8ff#)
.	.	8r	(8ee#J
*	*	*clefF4	*
=253	=253	=253	=253
2T	2V/#IV	2r	8ff#L
.	.	.	8ee#
.	.	.	8ff#
.	.	.	8ee#J
=254	=254	=254	=254
2T	2V/#IV	2r	8ff#L
.	.	.	8ee#
.	.	.	8ff#
.	.	.	8ee#J)
=255	=255	=255	=255
2T	2V7/VII	2r	(8ff#L 8aa
.	.	.	8ee# 8gg#
.	.	.	8ff# 8aa
.	.	.	8ee#J 8gg#
=256	=256	=256	=256
2T	2V7/VII	2r	8ff#L 8aa
.	.	.	8ee# 8gg#
.	.	.	8ff# 8aa
.	.	.	8ee#J) 8gg#
=257	=257	=257	=257
2T	2I/VI	8d	8ddL 8ff# 8aa
.	.	4f#	8ddJ 8ff# 8aa
.	.	.	8ddL 8ff# 8aa
.	.	8d	8ddJ 8ff# 8aa
=258	=258	=258	=258
2T	2V/VI	4a	8cc#L 8ee 8aa
.	.	.	8cc#J 8ee 8aa
.	.	(16g#LL	8cc#L 8ee 8aa
.	.	16a	.
.	.	16b	8cc#J 8ee 8aa
.	.	16aJJ)	.
=259	=259	=259	=259
2T	2V7c/VI	8g'L	8cc#L 8ee 8aa
.	.	8g'	8cc#J 8ee 8aa
.	.	8e'	8cc#L 8ee 8aa
.	.	8a'J	8cc#J 8ee 8aa
=260	=260	=260	=260
2T	2Ib/VI	8f#'L	8dd'L 8ff#' 8aa'
.	.	8d'J	8dd'J 8ff#' 8aa'
.	.	4r	(16gg#LL
.	.	.	16aa
.	.	.	16bb
.	.	.	16aaJJ)
=261	=261	=261	=261
2T	2Vb/VI	8c#L 8e 8a	8gg'L
.	.	8c#J 8e 8a	8ee'J
.	.	8c#L 8e 8a	4r
.	.	8c#J 8e 8a	.
*	*	*	*clefF4
=262	=262	=262	=262
2T	2I/VI	8dL 8f# 8a	8F#'L
.	.	8dJ 8f# 8a	8D'J
.	.	8dL 8f# 8a	4r
.	.	8dJ 8f# 8a	.
*	*	*	*clefG2
=263	=263	=263	=263
2T	2Vb/VI	8c#L 8e 8a	8gg'L
.	.	8c#J 8e 8a	8ee'J
.	.	8c#L 8e 8a	4r
.	.	8c#J 8e 8a	.
*	*	*	*clefF4
=264	=264	=264	=264
2T	2vi	8dL 8f 8a	8Fn'L
.	.	8dJ 8f 8a	8D'J
.	.	8dL 8f 8a	4r
.	.	8dJ 8f 8a	.
*	*	*	*clefG2
=265	=265	=265	=265
2T	2Ib	8AL 8c 8f	8ee-'L
.	.	8AJ 8c 8f	8cc'J
.	.	8AL 8c 8f	4r
.	.	8AJ 8c 8f	.
*	*	*	*clefF4
=266	=266	=266	=266
2T	2IV	8B-L 8d 8f	8DL
.	.	8B-J 8d 8f	8BB-J
.	.	8B-L 8d 8f	4r
.	.	8B-J 8d 8f	.
*	*	*clefF4	*clefG2
=267	=267	=267	=267
2T	2V/ii	8F#L 8A 8d	8ccL
.	.	8F#J 8A 8d	8aJ
.	.	8F#L 8A 8d	4r
.	.	8F#J 8A 8d	.
*	*	*	*clefF4
=268	=268	=268	=268
2T	2ii	8GL 8B- 8d	8BB-L
.	.	8GJ 8B- 8d	8GGJ
.	.	8GL 8B- 8d	4r
.	.	8GJ 8B- 8d	.
*	*	*	*clefG2
=269	=269	=269	=269
2T	2V7b	8EL 8G 8c	8b-L
.	.	8EJ 8G 8c	8gJ
.	.	8EL 8G 8c	4r
.	.	8EJ 8G 8c	.
*	*	*	*clefF4
=270	=270	=270	=270
2T	2I	8FL 8A 8c	8AAL
.	.	8FJ 8A 8c	8FFJ
.	.	8FL 8A 8c	4r
.	.	8FJ 8A 8c	.
*	*	*	*clefG2
=271	=271	=271	=271
2T	2V7c	8GL 8B- 8c	8eeL
.	.	8GJ 8B- 8c	8ccJ
.	.	8GL 8B- 8c	4r
.	.	8GJ 8B- 8c	.
*	*	*	*clefF4
=272	=272	=272	=272
2T	2I	8FL 8A 8c	8FFL
.	.	8FJ 8A 8c	8CCJ
.	.	8FL 8A 8c	4r
.	.	8FJ 8A 8c	.
*	*	*	*clefG2
=273	=273	=273	=273
2T	2V7b	8EL 8G 8c	8b-L
.	.	8EJ 8G 8c	8gJ
.	.	8EL 8G 8c	4r
.	.	8EJ 8G 8c	.
*	*	*	*clefF4
=274	=274	=274	=274
2T	2I	8FL 8A 8c	8AAL
.	.	8FJ 8A 8c	8FFJ
.	.	8FL 8A 8c	4r
.	.	8FJ 8A 8c	.
*	*	*	*clefG2
=275	=275	=275	=275
2T	2V7c	8GL 8B- 8c	8eeL
.	.	8GJ 8B- 8c	8ccJ
.	.	8GL 8B- 8c	4r
.	.	8GJ 8B- 8c	.
*	*	*	*clefF4
=276	=276	=276	=276
2T	2I	8FL 8A 8c	8FFL
.	.	8FJ 8A 8c	8CCJ
.	.	8FL 8A 8c	4r
.	.	8FJ 8A 8c	.
*	*	*	*clefG2
=277	=277	=277	=277
2T	2V7b	8EL 8G 8c	8ggL
.	.	8EJ 8G 8c	8ccJ
.	.	8EL 8G 8c	4r
.	.	8EJ 8G 8c	.
*	*	*	*clefF4
=278	=278	=278	=278
2D	2IV/V[I]	8FL 8A 8c	8AAL
.	.	8FJ 8A 8c	8CCJ
.	.	8FL 8A 8c	4r
.	.	8FJ 8A 8c	.
*	*	*	*clefG2
=279	=279	=279	=279
2D	2V7d/V	8FL 8G 8d	8bbL
.	.	8FJ 8G 8d	8ccJ
.	.	8FL 8G 8d	4r
.	.	8FJ 8G 8d	.
*	*	*	*clefF4
=280	=280	=280	=280
2D	2Ib/V	8EL 8G 8c	8CL
.	.	8EJ 8G 8c	8CCJ
.	.	8EL 8G 8c	4r
.	.	8EJ 8G 8c	.
*	*	*	*clefG2
=281	=281	=281	=281
2D	2V7d/V	8FL 8G 8d	8bbL
.	.	8FJ 8G 8d	8ccJ
.	.	8FL 8G 8d	4r
.	.	8FJ 8G 8d	.
*	*	*	*clefF4
=282	=282	=282	=282
2D	2Ib/V	8EL 8G 8c	8CL
.	.	8EJ 8G 8c	8CCJ
.	.	8EL 8G 8c	4r
.	.	8EJ 8G 8c	.
*	*	*	*clefG2
=283	=283	=283	=283
2D	2V7d/V	8FL 8G 8d	8bbL
.	.	8FJ 8G 8d	8ccJ
.	.	8FL 8G 8d	4r
.	.	8FJ 8G 8d	.
=284	=284	=284	=284
2D	2Ib/V	8EL 8G 8c	8cccL
.	.	8EJ 8G 8c	8ccJ
.	.	8EL 8G 8c	4r
.	.	8EJ 8G 8c	.
=285	=285	=285	=285
2D	2IVb	8DL 8F 8B-	8bb-L
.	.	8DJ 8F 8B-	8b-J
.	.	8DL 8F 8B-	4r
.	.	8DJ 8F 8B-	.
=286	=286	=286	=286
2D	2iiib	8CL 8E 8A	8aaL
.	.	8CJ 8E 8A	8aJ
.	.	8CL 8E 8A	4r
.	.	8CJ 8E 8A	.
=287	=287	=287	=287
2D	2iib	8BB-L 8D 8G	8ggL
.	.	8BB-J 8D 8G	8gJ
.	.	8BB-L 8D 8G	4r
.	.	8BB-J 8D 8G	.
=288	=288	=288	=288
4D	4Ib	4AA' 4C' 4F'	16ffLL
.	.	.	16cc
.	.	.	16a
.	.	.	16fJJ
4D	4iib	4BB-' 4D' 4G'	16ddLL
.	.	.	16b-
.	.	.	16g
.	.	.	16dJJ
=289	=289	=289	=289
4D	4Cc	4C' 4F' 4A'	16ccLL
.	.	.	16a
.	.	.	16f
.	.	.	16cJJ
4D	4V7	4CC 4C	16eLL
.	.	.	16c
.	.	.	16B-
.	.	.	16GJJ
=290	=290	=290	=290
2T	2I	(16GGLL	8A 8c 8f
.	.	16FF	.
.	.	16EE	4a
.	.	16FFJJ)	.
.	.	8FFF	.
.	.	8r	8f
=291	=291	=291	=291
2T	2V7	(16GGLL	8e 8b- 8cc
.	.	16FF	.
.	.	16EE	4e 4b- 4cc
.	.	16FFJJ)	.
.	.	8FFF	.
.	.	8r	8e 8b- 8cc
=292	=292	=292	=292
2T	2V7	(16GGLL	8e 8b- 8cc
.	.	16FF	.
.	.	16EE	4e 4b- 4cc
.	.	16FFJJ)	.
.	.	8FFF	.
.	.	8r	8e 8b- 8cc
=293	=293	=293	=293
*	*	*	*^
2T	2I	(16GGLL	(8ccL	4f 4a
.	.	16FF	.	.
.	.	16EE	8ffJ)	.
.	.	16FFJJ)	.	.
.	.	8FFF	8cc'L	4r
.	.	8r	8cc'J	.
*	*	*	*v	*v
=294	=294	=294	=294
2T	2I	(16GGLL	8A 8c 8f
.	.	16FF	.
.	.	16EE	4a
.	.	16FFJJ)	.
.	.	8FFF	.
.	.	8r	8f
=295	=295	=295	=295
2T	2V7	(16GGLL	8e 8b- 8cc
.	.	16FF	.
.	.	16EE	4e 4b- 4cc
.	.	16FFJJ)	.
.	.	8FFF	.
.	.	8r	8e 8b- 8cc
=296	=296	=296	=296
2T	2V7	(16GGLL	8e 8b- 8cc
.	.	16FF	.
.	.	16EE	4e 4b- 4cc
.	.	16FFJJ)	.
.	.	8FFF	.
.	.	8r	8e 8b- 8cc
=297	=297	=297	=297
*	*	*	*^
2T	2I	(16GGLL	(8ccL	4f 4a
.	.	16FF	.	.
.	.	16EE	8ffJ)	.
.	.	16FFJJ)	.	.
.	.	8FFF	8cc'L	4r
.	.	8r	8cc'J	.
*	*	*	*v	*v
=298	=298	=298	=298
2T	2V7	(16GGLL	8e 8b- 8cc
.	.	16FF	.
.	.	16EE	4e 4b- 4cc
.	.	16FFJJ)	.
.	.	8FFF	.
.	.	8r	8e 8b- 8cc
=299	=299	=299	=299
*	*	*	*^
2T	2I	(16GGLL	(8ccL	4f 4a
.	.	16FF	.	.
.	.	16EE	8ffJ)	.
.	.	16FFJJ)	.	.
.	.	8FFF	8cc'L	4r
.	.	8r	8cc'J	.
*	*	*	*v	*v
=300	=300	=300	=300
2T	2V7	(16GGLL	8e 8b- 8cc
.	.	16FF	.
.	.	16EE	4e 4b- 4cc
.	.	16FFJJ)	.
.	.	8FFF	.
.	.	8r	8e 8b- 8cc
=301	=301	=301	=301
2T	2I	8FF	(4.f 4.a 4.cc
.	.	8r	.
.	.	4r	.
.	.	.	8b
=302	=302	=302	=302
2D	2V	2r	4.cc
.	.	.	8b
=303	=303	=303	=303
2D	2V	2r	8ccL
.	.	.	8b
.	.	.	8cc
.	.	.	8bJ
=304	=304	=304	=304
2D	2V	2r	8ccL
.	.	.	8b
.	.	.	8cc
.	.	.	8bJ
=305	=305	=305	=305
2D	2V	2r	8ccL
.	.	.	8b
.	.	.	8cc
.	.	.	8bJ
=306	=306	=306	=306
2D	2V	2r	8ccL
.	.	.	8cc#
.	.	.	8dd
.	.	.	8eeJ)
=307	=307	=307	=307
*	*	*^	*
4.T	4.Ib	8AAL	4.AA	(8ffL
.	.	[8C	.	8.f
.	.	8CJ] 8F	.	.
.	.	.	.	16aJk)
=308	=308	=308	=308	=308
.	.	.	.	q16g
.	.	.	.	q16a
.	.	.	.	q16b-
4P	4IV	8BB-L	4.BB-	(16aLL
.	.	.	.	16gJJ)
.	.	[8D	.	([8g
8P	8iib	8DJ] 8G	.	32gLLL]
.	.	.	.	32b-
.	.	.	.	32dd
.	.	.	.	32ccJJJ)
=309	=309	=309	=309	=309
4D	4Cc	(8AL	4C	(8ccL
.	.	16FL	.	16aL
.	.	16A	.	16cc
8D	8V7	16G	8C	16b-
.	.	16EJJ)	.	16gJJ)
=310	=310	=310	=310	=310
4.T	4.I	8F	8FF	32f'LLL
.	.	.	.	32cc'
.	.	.	.	32dd'
.	.	.	.	32ee'JJJ
.	.	8r	8r	32ff'LLL
.	.	.	.	32gg'
.	.	.	.	32aa'
.	.	.	.	32bb-'JJJ
.	.	8r	8r	32ccc'LLL
.	.	.	.	32ddd'
.	.	.	.	32eee-'
.	.	.	.	32eee'JJJ
=311	=311	=311	=311	=311
4.T	4.Ib	8AAL	4.AA	32fff'LLL
.	.	.	.	(32eee
.	.	.	.	32fff)
.	.	.	.	(32eeeJJ
.	.	[8C	.	32fffLL)
.	.	.	.	(32eee
.	.	.	.	32ddd)
.	.	.	.	(32cccJJ
.	.	8CJ] 8F	.	32bb-LL)
.	.	.	.	(32aa
.	.	.	.	32gg)
.	.	.	.	(32ffJJJ
=312	=312	=312	=312	=312
4.P	4.iib	8BB-L	4.BB-	32dddLLL)
.	.	.	.	(32ccc#
.	.	.	.	32ddd)
.	.	.	.	(32ccc#JJ
.	.	[8D	.	32dddLL)
.	.	.	.	(32ccc
.	.	.	.	32bb-)
.	.	.	.	(32aaJJ
.	.	8DJ] 8G	.	32ggLL)
.	.	.	.	(32ff
.	.	.	.	32ee)
.	.	.	.	(32ddJJJ
*	*	*v	*v	*
=313	=313	=313	=313
4.D	4.Cc	8C 8F 8A	32ccLLL)
.	.	.	(32ff
.	.	.	32aa)
.	.	.	(32gg#JJ
.	.	8r	32bb-LL)
.	.	.	(32aa
.	.	.	32gg)
.	.	.	(32ffJJ
.	.	8r	32eeLL)
.	.	.	(32dd
.	.	.	32cc)
.	.	.	(32bJJJ
=314	=314	=314	=314
4.D	4.V7	8CC	32ddLLL)
.	.	.	(32cc
.	.	.	32b-)
.	.	.	(32aJJ
.	.	8r	32gLL)
.	.	.	(32f
.	.	.	32e)
.	.	.	(32dJJ
.	.	8r	32cLL)
.	.	.	(32B-
.	.	.	32A)
.	.	.	(32GJJJ
=315	=315	=315	=315
4.T	4.I	8FF	8F)
.	.	8r	8r
.	.	8FF' 8AA' 8C' 8F'	8f' 8a' 8cc' 8ff'
=316	=316	=316	=316
4.T	4.I	8FFF' 8FF'	8ff' 8aa' 8ccc' 8fff'
.	.	8r	8r
.	.	8r	8r
==	==	==	==
*-	*-	*-	*-
